;FLAVOR:UltiGCode
;TIME:9334
;MATERIAL:15316
;MATERIAL2:0
;NOZZLE_DIAMETER:0.4
;Generated with Cura_SteamEngine 2.3.1

;LAYER_COUNT:126
;LAYER:0
M107
G10
G0 F4909.1 X33.442 Y82.759 Z.27
;TYPE:SKIRT
G11
G1 F1800 X34.198 Y82.516 E0.07504
G1 X34.974 Y82.351 E0.15001
G1 X35.762 Y82.265 E0.22492
G1 X36.225 Y82.251 E0.26869
G1 X103.475 Y82.251 E6.62382
G1 X104.267 Y82.291 E6.69876
G1 X105.052 Y82.41 E6.77379
G1 X105.82 Y82.608 E6.84874
G1 X106.565 Y82.883 E6.92378
G1 X107.278 Y83.23 E6.99872
G1 X107.953 Y83.648 E7.07375
G1 X108.582 Y84.131 E7.14869
G1 X109.159 Y84.676 E7.22369
G1 X109.679 Y85.275 E7.29865
G1 X110.135 Y85.924 E7.37361
G1 X110.524 Y86.616 E7.44863
G1 X110.842 Y87.343 E7.52361
G1 X111.085 Y88.099 E7.59866
G1 X111.25 Y88.875 E7.67363
G1 X111.336 Y89.663 E7.74853
G1 X111.35 Y90.126 E7.79231
G1 X111.35 Y132.874 E11.83199
G1 X111.31 Y133.666 E11.90693
G1 X111.191 Y134.451 E11.98196
G1 X110.993 Y135.219 E12.05691
G1 X110.718 Y135.964 E12.13196
G1 X110.371 Y136.677 E12.20689
G1 X109.953 Y137.352 E12.28192
G1 X109.47 Y137.981 E12.35686
G1 X108.925 Y138.558 E12.43187
G1 X108.326 Y139.078 E12.50683
G1 X107.677 Y139.534 E12.58178
G1 X106.985 Y139.923 E12.6568
G1 X106.258 Y140.241 E12.73179
G1 X105.502 Y140.484 E12.80683
G1 X104.726 Y140.649 E12.8818
G1 X103.938 Y140.735 E12.95671
G1 X103.475 Y140.749 E13.00048
G1 X36.225 Y140.749 E19.35561
G1 X35.433 Y140.709 E19.43055
G1 X34.648 Y140.59 E19.50558
G1 X33.88 Y140.392 E19.58053
G1 X33.135 Y140.117 E19.65557
G1 X32.422 Y139.77 E19.73051
G1 X31.747 Y139.352 E19.80553
G1 X31.118 Y138.869 E19.88048
G1 X30.541 Y138.324 E19.95548
G1 X30.021 Y137.725 E20.03044
G1 X29.565 Y137.076 E20.1054
G1 X29.176 Y136.384 E20.18042
G1 X28.858 Y135.657 E20.2554
G1 X28.615 Y134.901 E20.33044
G1 X28.45 Y134.125 E20.40541
G1 X28.364 Y133.337 E20.48032
G1 X28.35 Y132.874 E20.5241
G1 X28.35 Y90.126 E24.56378
G1 X28.39 Y89.334 E24.63872
G1 X28.509 Y88.549 E24.71375
G1 X28.707 Y87.781 E24.7887
G1 X28.982 Y87.036 E24.86375
G1 X29.329 Y86.323 E24.93868
G1 X29.747 Y85.648 E25.01371
G1 X30.23 Y85.019 E25.08865
G1 X30.775 Y84.442 E25.16366
G1 X31.374 Y83.922 E25.23862
G1 X32.023 Y83.466 E25.31357
G1 X32.715 Y83.077 E25.38859
G1 X33.442 Y82.759 E25.46358
G0 F4909.1 X33.763 Y83.015
G1 F1800 X34.508 Y82.8 E25.53685
G1 X35.271 Y82.662 E25.61013
G1 X36.225 Y82.601 E25.70046
G1 X103.475 Y82.601 E32.05559
G1 X104.25 Y82.641 E32.12892
G1 X105.016 Y82.76 E32.20218
G1 X105.766 Y82.958 E32.27548
G1 X106.492 Y83.232 E32.34881
G1 X107.185 Y83.579 E32.42205
G1 X107.839 Y83.996 E32.49535
G1 X108.447 Y84.478 E32.56867
G1 X109.002 Y85.02 E32.64198
G1 X109.499 Y85.616 E32.71531
G1 X109.931 Y86.26 E32.78859
G1 X110.294 Y86.945 E32.86185
G1 X110.586 Y87.664 E32.93519
G1 X110.801 Y88.409 E33.00846
G1 X110.939 Y89.172 E33.08174
G1 X111 Y90.126 E33.17208
G1 X111 Y132.874 E37.21176
G1 X110.96 Y133.649 E37.2851
G1 X110.841 Y134.415 E37.35835
G1 X110.643 Y135.165 E37.43165
G1 X110.369 Y135.891 E37.50499
G1 X110.022 Y136.584 E37.57822
G1 X109.605 Y137.238 E37.65152
G1 X109.123 Y137.846 E37.72484
G1 X108.581 Y138.401 E37.79815
G1 X107.985 Y138.898 E37.87149
G1 X107.341 Y139.33 E37.94477
G1 X106.656 Y139.693 E38.01803
G1 X105.937 Y139.985 E38.09136
G1 X105.192 Y140.2 E38.16464
G1 X104.429 Y140.338 E38.23791
G1 X103.475 Y140.399 E38.32825
G1 X36.225 Y140.399 E44.68337
G1 X35.45 Y140.359 E44.75671
G1 X34.684 Y140.24 E44.82996
G1 X33.934 Y140.042 E44.90327
G1 X33.208 Y139.768 E44.9766
G1 X32.515 Y139.421 E45.04984
G1 X31.861 Y139.004 E45.12314
G1 X31.253 Y138.522 E45.19646
G1 X30.698 Y137.98 E45.26976
G1 X30.201 Y137.384 E45.3431
G1 X29.769 Y136.74 E45.41638
G1 X29.406 Y136.055 E45.48964
G1 X29.114 Y135.336 E45.56298
G1 X28.899 Y134.591 E45.63625
G1 X28.761 Y133.828 E45.70953
G1 X28.7 Y132.874 E45.79986
G1 X28.7 Y90.126 E49.83955
G1 X28.74 Y89.351 E49.91288
G1 X28.859 Y88.585 E49.98614
G1 X29.057 Y87.835 E50.05944
G1 X29.331 Y87.109 E50.13277
G1 X29.678 Y86.416 E50.20601
G1 X30.095 Y85.762 E50.27931
G1 X30.577 Y85.154 E50.35263
G1 X31.119 Y84.599 E50.42594
G1 X31.715 Y84.102 E50.49927
G1 X32.359 Y83.67 E50.57256
G1 X33.044 Y83.307 E50.64582
G1 X33.763 Y83.015 E50.71915
G0 F4909.1 X34.08 Y83.279
G1 F1800 X34.814 Y83.091 E50.79075
G1 X35.563 Y82.982 E50.86228
G1 X36.225 Y82.951 E50.92491
G1 X103.475 Y82.951 E57.28003
G1 X104.231 Y82.991 E57.35157
G1 X104.979 Y83.11 E57.42315
G1 X105.71 Y83.308 E57.49472
G1 X106.417 Y83.582 E57.56637
G1 X107.09 Y83.928 E57.63788
G1 X107.723 Y84.344 E57.70946
G1 X108.309 Y84.824 E57.78104
G1 X108.841 Y85.363 E57.85261
G1 X109.313 Y85.955 E57.92416
G1 X109.72 Y86.594 E57.99575
G1 X110.058 Y87.272 E58.06735
G1 X110.322 Y87.981 E58.13884
G1 X110.51 Y88.715 E58.21044
G1 X110.619 Y89.464 E58.28197
G1 X110.65 Y90.126 E58.3446
G1 X110.65 Y132.874 E62.38428
G1 X110.61 Y133.63 E62.45582
G1 X110.491 Y134.378 E62.5274
G1 X110.293 Y135.109 E62.59897
G1 X110.019 Y135.816 E62.67062
G1 X109.673 Y136.489 E62.74213
G1 X109.257 Y137.122 E62.81371
G1 X108.777 Y137.708 E62.8853
G1 X108.238 Y138.24 E62.95686
G1 X107.646 Y138.712 E63.02841
G1 X107.007 Y139.119 E63.10001
G1 X106.329 Y139.457 E63.1716
G1 X105.62 Y139.721 E63.24309
G1 X104.886 Y139.909 E63.31469
G1 X104.137 Y140.018 E63.38622
G1 X103.475 Y140.049 E63.44885
G1 X36.225 Y140.049 E69.80397
G1 X35.469 Y140.009 E69.87551
G1 X34.721 Y139.89 E69.94709
G1 X33.99 Y139.692 E70.01866
G1 X33.283 Y139.418 E70.09031
G1 X32.61 Y139.072 E70.16182
G1 X31.977 Y138.656 E70.2334
G1 X31.391 Y138.176 E70.30499
G1 X30.859 Y137.637 E70.37655
G1 X30.387 Y137.045 E70.4481
G1 X29.98 Y136.406 E70.5197
G1 X29.642 Y135.728 E70.59129
G1 X29.378 Y135.019 E70.66278
G1 X29.19 Y134.285 E70.73438
G1 X29.081 Y133.536 E70.80591
G1 X29.05 Y132.874 E70.86854
G1 X29.05 Y90.126 E74.90822
G1 X29.09 Y89.37 E74.97977
G1 X29.209 Y88.622 E75.05134
G1 X29.407 Y87.891 E75.12291
G1 X29.681 Y87.184 E75.19456
G1 X30.027 Y86.511 E75.26607
G1 X30.443 Y85.878 E75.33765
G1 X30.923 Y85.292 E75.40924
G1 X31.462 Y84.76 E75.48081
G1 X32.054 Y84.288 E75.55235
G1 X32.693 Y83.881 E75.62395
G1 X33.371 Y83.543 E75.69554
G1 X34.08 Y83.279 E75.76703
G0 F4909.1 X34.395 Y83.551
G1 F1800 X35.116 Y83.392 E75.83681
G1 X35.851 Y83.311 E75.90668
G1 X36.225 Y83.301 E75.94204
G1 X103.475 Y83.301 E82.29716
G1 X104.213 Y83.341 E82.36701
G1 X104.941 Y83.46 E82.43672
G1 X105.653 Y83.658 E82.50655
G1 X106.339 Y83.931 E82.57633
G1 X106.992 Y84.277 E82.64616
G1 X107.604 Y84.691 E82.71599
G1 X108.167 Y85.169 E82.78578
G1 X108.675 Y85.705 E82.85556
G1 X109.122 Y86.293 E82.92536
G1 X109.503 Y86.926 E82.99518
G1 X109.814 Y87.596 E83.06499
G1 X110.05 Y88.296 E83.13479
G1 X110.209 Y89.017 E83.20457
G1 X110.29 Y89.752 E83.27444
G1 X110.3 Y90.126 E83.3098
G1 X110.3 Y132.874 E87.34949
G1 X110.26 Y133.612 E87.41933
G1 X110.141 Y134.34 E87.48904
G1 X109.943 Y135.052 E87.55887
G1 X109.67 Y135.738 E87.62865
G1 X109.324 Y136.391 E87.69848
G1 X108.91 Y137.003 E87.76831
G1 X108.432 Y137.566 E87.8381
G1 X107.896 Y138.074 E87.90789
G1 X107.308 Y138.521 E87.97769
G1 X106.675 Y138.902 E88.0475
G1 X106.005 Y139.213 E88.11731
G1 X105.305 Y139.449 E88.18712
G1 X104.584 Y139.608 E88.25689
G1 X103.849 Y139.689 E88.32676
G1 X103.475 Y139.699 E88.36212
G1 X36.225 Y139.699 E94.71725
G1 X35.487 Y139.659 E94.78709
G1 X34.759 Y139.54 E94.8568
G1 X34.047 Y139.342 E94.92663
G1 X33.361 Y139.069 E94.99641
G1 X32.708 Y138.723 E95.06624
G1 X32.096 Y138.309 E95.13607
G1 X31.533 Y137.831 E95.20586
G1 X31.025 Y137.295 E95.27565
G1 X30.578 Y136.707 E95.34545
G1 X30.197 Y136.074 E95.41526
G1 X29.886 Y135.404 E95.48507
G1 X29.65 Y134.704 E95.55488
G1 X29.491 Y133.983 E95.62465
G1 X29.41 Y133.248 E95.69452
G1 X29.4 Y132.874 E95.72988
G1 X29.4 Y90.126 E99.76957
G1 X29.44 Y89.388 E99.83941
G1 X29.559 Y88.66 E99.90912
G1 X29.757 Y87.948 E99.97896
G1 X30.03 Y87.262 E100.04873
G1 X30.376 Y86.609 E100.11856
G1 X30.79 Y85.997 E100.18839
G1 X31.268 Y85.434 E100.25818
G1 X31.804 Y84.926 E100.32797
G1 X32.392 Y84.479 E100.39777
G1 X33.025 Y84.098 E100.46758
G1 X33.695 Y83.787 E100.53739
G1 X34.395 Y83.551 E100.6072
G0 F4909.1 X34.706 Y83.832
G1 F1800 X35.414 Y83.702 E100.67522
G1 X36.225 Y83.651 E100.75201
G1 X103.475 Y83.651 E107.10714
G1 X104.193 Y83.691 E107.17509
G1 X104.903 Y83.81 E107.24312
G1 X105.595 Y84.008 E107.31114
G1 X106.26 Y84.281 E107.37907
G1 X106.892 Y84.626 E107.44712
G1 X107.481 Y85.039 E107.5151
G1 X108.02 Y85.515 E107.58305
G1 X108.504 Y86.047 E107.65102
G1 X108.925 Y86.63 E107.71897
G1 X109.279 Y87.257 E107.78702
G1 X109.562 Y87.918 E107.85497
G1 X109.769 Y88.607 E107.92295
G1 X109.899 Y89.315 E107.99098
G1 X109.95 Y90.126 E108.06777
G1 X109.95 Y132.874 E112.10745
G1 X109.91 Y133.592 E112.17541
G1 X109.791 Y134.302 E112.24344
G1 X109.593 Y134.994 E112.31146
G1 X109.32 Y135.659 E112.37939
G1 X108.975 Y136.291 E112.44743
G1 X108.562 Y136.88 E112.51541
G1 X108.086 Y137.419 E112.58337
G1 X107.554 Y137.903 E112.65134
G1 X106.971 Y138.324 E112.71929
G1 X106.344 Y138.678 E112.78733
G1 X105.683 Y138.961 E112.85528
G1 X104.994 Y139.168 E112.92327
G1 X104.286 Y139.298 E112.99129
G1 X103.475 Y139.349 E113.06808
G1 X36.225 Y139.349 E119.42321
G1 X35.507 Y139.309 E119.49117
G1 X34.797 Y139.19 E119.5592
G1 X34.105 Y138.992 E119.62721
G1 X33.44 Y138.719 E119.69515
G1 X32.808 Y138.374 E119.76319
G1 X32.219 Y137.961 E119.83117
G1 X31.68 Y137.485 E119.89912
G1 X31.196 Y136.953 E119.96709
G1 X30.775 Y136.37 E120.03505
G1 X30.421 Y135.743 E120.10309
G1 X30.138 Y135.082 E120.17104
G1 X29.931 Y134.393 E120.23902
G1 X29.801 Y133.685 E120.30705
G1 X29.75 Y132.874 E120.38384
G1 X29.75 Y90.126 E124.42353
G1 X29.79 Y89.408 E124.49148
G1 X29.909 Y88.698 E124.55951
G1 X30.107 Y88.006 E124.62753
G1 X30.38 Y87.341 E124.69546
G1 X30.725 Y86.709 E124.76351
G1 X31.138 Y86.12 E124.83149
G1 X31.614 Y85.581 E124.89944
G1 X32.146 Y85.097 E124.96741
G1 X32.729 Y84.676 E125.03536
G1 X33.356 Y84.322 E125.10341
G1 X34.017 Y84.039 E125.17136
G1 X34.706 Y83.832 E125.23934
G0 F4909.1 X35.013 Y84.122
G1 F1800 X35.706 Y84.023 E125.30549
G1 X36.225 Y84.001 E125.35458
G1 X103.475 Y84.001 E131.70971
G1 X104.174 Y84.041 E131.77587
G1 X104.863 Y84.16 E131.84195
G1 X105.534 Y84.358 E131.90806
G1 X106.179 Y84.63 E131.97421
G1 X106.788 Y84.974 E132.04031
G1 X107.354 Y85.386 E132.10646
G1 X107.869 Y85.859 E132.17254
G1 X108.327 Y86.388 E132.23867
G1 X108.722 Y86.966 E132.30482
G1 X109.048 Y87.585 E132.37094
G1 X109.302 Y88.237 E132.43706
G1 X109.479 Y88.914 E132.50319
G1 X109.578 Y89.607 E132.56934
G1 X109.6 Y90.126 E132.61843
G1 X109.6 Y132.874 E136.65812
G1 X109.56 Y133.573 E136.72428
G1 X109.441 Y134.262 E136.79035
G1 X109.243 Y134.933 E136.85647
G1 X108.971 Y135.578 E136.92262
G1 X108.627 Y136.187 E136.98871
G1 X108.215 Y136.753 E137.05487
G1 X107.742 Y137.268 E137.12095
G1 X107.213 Y137.726 E137.18707
G1 X106.635 Y138.121 E137.25323
G1 X106.016 Y138.447 E137.31934
G1 X105.364 Y138.701 E137.38547
G1 X104.687 Y138.878 E137.45159
G1 X103.994 Y138.977 E137.51775
G1 X103.475 Y138.999 E137.56684
G1 X36.225 Y138.999 E143.92196
G1 X35.526 Y138.959 E143.98813
G1 X34.837 Y138.84 E144.0542
G1 X34.166 Y138.642 E144.12031
G1 X33.521 Y138.37 E144.18646
G1 X32.912 Y138.026 E144.25256
G1 X32.346 Y137.614 E144.31872
G1 X31.831 Y137.141 E144.3848
G1 X31.373 Y136.612 E144.45092
G1 X30.978 Y136.034 E144.51708
G1 X30.652 Y135.415 E144.58319
G1 X30.398 Y134.763 E144.64931
G1 X30.221 Y134.086 E144.71544
G1 X30.122 Y133.393 E144.78159
G1 X30.1 Y132.874 E144.83068
G1 X30.1 Y90.126 E148.87037
G1 X30.14 Y89.427 E148.93653
G1 X30.259 Y88.738 E149.00261
G1 X30.457 Y88.067 E149.06872
G1 X30.729 Y87.422 E149.13487
G1 X31.073 Y86.813 E149.20097
G1 X31.485 Y86.247 E149.26713
G1 X31.958 Y85.732 E149.3332
G1 X32.487 Y85.274 E149.39933
G1 X33.065 Y84.879 E149.46549
G1 X33.684 Y84.553 E149.5316
G1 X34.336 Y84.299 E149.59772
G1 X35.013 Y84.122 E149.66385
G0 F4909.1 X34.652 Y84.569
G1 F1800 X35.315 Y84.423 E149.728
G1 X36.225 Y84.351 E149.81427
G1 X103.475 Y84.351 E156.16939
G1 X104.153 Y84.391 E156.23357
G1 X104.822 Y84.51 E156.29779
G1 X105.472 Y84.707 E156.36197
G1 X106.095 Y84.979 E156.42621
G1 X106.681 Y85.323 E156.49042
G1 X107.223 Y85.733 E156.55465
G1 X107.713 Y86.203 E156.61881
G1 X108.144 Y86.728 E156.683
G1 X108.511 Y87.3 E156.74722
G1 X108.808 Y87.911 E156.81142
G1 X109.032 Y88.553 E156.87568
G1 X109.178 Y89.216 E156.93983
G1 X109.25 Y90.126 E157.0261
G1 X109.25 Y132.874 E161.06578
G1 X109.21 Y133.552 E161.12997
G1 X109.091 Y134.221 E161.19418
G1 X108.894 Y134.871 E161.25836
G1 X108.622 Y135.494 E161.3226
G1 X108.278 Y136.08 E161.38682
G1 X107.868 Y136.622 E161.45104
G1 X107.398 Y137.112 E161.5152
G1 X106.873 Y137.543 E161.57939
G1 X106.301 Y137.91 E161.64361
G1 X105.69 Y138.207 E161.70781
G1 X105.048 Y138.431 E161.77207
G1 X104.385 Y138.577 E161.83622
G1 X103.475 Y138.649 E161.92249
G1 X36.225 Y138.649 E168.27761
G1 X35.547 Y138.609 E168.3418
G1 X34.878 Y138.49 E168.40601
G1 X34.228 Y138.293 E168.47019
G1 X33.605 Y138.021 E168.53443
G1 X33.019 Y137.677 E168.59865
G1 X32.477 Y137.267 E168.66287
G1 X31.987 Y136.797 E168.72703
G1 X31.556 Y136.272 E168.79122
G1 X31.189 Y135.7 E168.85544
G1 X30.892 Y135.089 E168.91964
G1 X30.668 Y134.447 E168.9839
G1 X30.522 Y133.784 E169.04805
G1 X30.45 Y132.874 E169.13432
G1 X30.45 Y90.126 E173.174
G1 X30.49 Y89.448 E173.23819
G1 X30.609 Y88.779 E173.3024
G1 X30.806 Y88.129 E173.36658
G1 X31.078 Y87.506 E173.43082
G1 X31.422 Y86.92 E173.49504
G1 X31.832 Y86.378 E173.55926
G1 X32.302 Y85.888 E173.62342
G1 X32.827 Y85.457 E173.68761
G1 X33.399 Y85.09 E173.75184
G1 X34.01 Y84.793 E173.81603
G1 X34.652 Y84.569 E173.88029
G0 F4909.1 X34.963 Y84.85
G1 F1800 X35.611 Y84.736 E173.94247
G1 X36.225 Y84.701 E174.00058
G1 X103.475 Y84.701 E180.35571
G1 X104.132 Y84.741 E180.41791
G1 X104.78 Y84.86 E180.48017
G1 X105.408 Y85.057 E180.54237
G1 X106.008 Y85.329 E180.60462
G1 X106.571 Y85.671 E180.66687
G1 X107.088 Y86.079 E180.72911
G1 X107.551 Y86.546 E180.79126
G1 X107.955 Y87.067 E180.85356
G1 X108.293 Y87.632 E180.91577
G1 X108.559 Y88.234 E180.97797
G1 X108.751 Y88.864 E181.04021
G1 X108.865 Y89.512 E181.10238
G1 X108.9 Y90.126 E181.1605
G1 X108.9 Y132.874 E185.20019
G1 X108.86 Y133.531 E185.26239
G1 X108.741 Y134.179 E185.32465
G1 X108.544 Y134.807 E185.38685
G1 X108.272 Y135.407 E185.4491
G1 X107.93 Y135.97 E185.51135
G1 X107.522 Y136.487 E185.57359
G1 X107.055 Y136.95 E185.63573
G1 X106.534 Y137.354 E185.69804
G1 X105.969 Y137.692 E185.76025
G1 X105.367 Y137.958 E185.82245
G1 X104.737 Y138.15 E185.88469
G1 X104.089 Y138.264 E185.94686
G1 X103.475 Y138.299 E186.00498
G1 X36.225 Y138.299 E192.36011
G1 X35.568 Y138.259 E192.42231
G1 X34.92 Y138.14 E192.48457
G1 X34.292 Y137.943 E192.54676
G1 X33.692 Y137.671 E192.60902
G1 X33.129 Y137.329 E192.67127
G1 X32.612 Y136.921 E192.73351
G1 X32.149 Y136.454 E192.79565
G1 X31.745 Y135.933 E192.85795
G1 X31.407 Y135.368 E192.92017
G1 X31.141 Y134.766 E192.98237
G1 X30.949 Y134.136 E193.0446
G1 X30.835 Y133.488 E193.10678
G1 X30.8 Y132.874 E193.1649
G1 X30.8 Y90.126 E197.20458
G1 X30.84 Y89.469 E197.26679
G1 X30.959 Y88.821 E197.32905
G1 X31.156 Y88.193 E197.39124
G1 X31.428 Y87.593 E197.4535
G1 X31.77 Y87.03 E197.51575
G1 X32.178 Y86.513 E197.57799
G1 X32.645 Y86.05 E197.64013
G1 X33.166 Y85.646 E197.70243
G1 X33.731 Y85.308 E197.76465
G1 X34.333 Y85.042 E197.82685
G1 X34.963 Y84.85 E197.88908
G0 F4909.1 X35.269 Y85.142
G1 F1800 X35.901 Y85.061 E197.9493
G1 X36.225 Y85.051 E197.97993
G1 X103.475 Y85.051 E204.33505
G1 X104.111 Y85.091 E204.39527
G1 X104.736 Y85.21 E204.4554
G1 X105.342 Y85.407 E204.51561
G1 X105.918 Y85.678 E204.57577
